X: 29746
T: Nyth Y Gwcw
R: barndance
M: 4/4
K: Edorian
G2 F2 E2 e2|Bc B/A/G A2 c/B/A|GAGF E2 c2|dedA F2 BA|
G2 GF E2 ec|d2 A2 F2 D2|G3 F E2 EA|Be d/e/f e3 B,|
GzGE zEez|BzBA zA BA|GzGE zE F/G/A|BzBF zFFB,|
GzzG z2 G2|BzzB z2 B2|GFE^D E2 GB|zB,-B,2 E4||
Efgf ee-ed-|dcBA AB-Be-|efga bb-ba-|agfe ^dB-B2|
Ggzg ze g/f/e|dBzA zG F2|G>FE^D E>FGA|1 BA-AG- GF E2|
G2 gf e2 c2|dedA FG A/G/F|e2 g2 b2 c’b|agfe d2 af|
G3 f ef e/d/c|dA A/A/A FD D/D/D|FGED E2 F/G/A|B,3 D E4||

